X:102
T:Lou Bouissou Fai Flouquetto
M:3/8
L:1/8
N:anime
N:La Bourre 4th edition 1929, page 98
Z:Steve Mansfield www.lesession.co.uk June 2012
K:G
B d c | (Bd) c | B A G/ G/ | 
A A G | A A B/ c/ | d A2 | B d c | 
(Bd) c | B A2 | G A B | c (AB) | 
G3 | G A B | c e2 | !fermata! d3 |]
<end>
<start>
